svgs/duotone/square-e.svg

<svg xmlns="http://www.w3.org/2000/svg" viewBox="0 0 448 512"><!-- Font Awesome Pro 6.0.0-alpha2 by @fontawesome - https://fontawesome.com License - https://fontawesome.com/license (Commercial License) --><defs><style>.fa-secondary{opacity:.4}</style></defs><path d="M384 32H64C28.654 32 0 60.654 0 96V416C0 451.346 28.654 480 64 480H384C419.348 480 448 451.346 448 416V96C448 60.654 419.348 32 384 32ZM264 232C277.25 232 288 242.75 288 256S277.25 280 264 280H176V336H296C309.25 336 320 346.75 320 360S309.25 384 296 384H152C138.75 384 128 373.25 128 360V152C128 138.75 138.75 128 152 128H296C309.25 128 320 138.75 320 152S309.25 176 296 176H176V232H264Z" class="fa-secondary"/><path d="M296 176C309.25 176 320 165.25 320 152S309.25 128 296 128H152C138.75 128 128 138.75 128 152V360C128 373.25 138.75 384 152 384H296C309.25 384 320 373.25 320 360S309.25 336 296 336H176V280H264C277.25 280 288 269.25 288 256S277.25 232 264 232H176V176H296Z" class="fa-primary"/></svg>

<svg xmlns="http://www.w3.org/2000/svg" viewBox="0 0 448 512"><!--! Font Awesome Pro 6.3.0 by @fontawesome - https://fontawesome.com License - https://fontawesome.com/license (Commercial License) Copyright 2023 Fonticons, Inc. --><defs><style>.fa-secondary{opacity:.4}</style></defs><path class="fa-primary" d="M296 176C309.3 176 320 165.3 320 152S309.3 128 296 128h-144C138.8 128 128 138.8 128 152v208C128 373.3 138.8 384 152 384h144c13.25 0 24-10.75 24-24s-10.75-24-24-24H176V280h88C277.3 280 288 269.3 288 256s-10.75-24-24-24H176V176H296z"/><path class="fa-secondary" d="M384 32H64C28.65 32 0 60.65 0 96v320c0 35.35 28.65 64 64 64h320c35.35 0 64-28.65 64-64V96C448 60.65 419.3 32 384 32zM264 232C277.3 232 288 242.8 288 256s-10.75 24-24 24H176v56h120c13.25 0 24 10.75 24 24S309.3 384 296 384h-144C138.8 384 128 373.3 128 360v-208C128 138.8 138.8 128 152 128h144C309.3 128 320 138.8 320 152S309.3 176 296 176H176v56H264z"/></svg>
